X:1
T:Title
%%score { ( 1 3 ) | 2 }
L:1/8
M:4/4
K:C
V:1 treble nm="Grand Piano"
V:3 treble 
V:2 bass 
V:1
 z4 z2[Q:1/4=100] [CE]>[DF] | [EG]>[EG] [EG]>[EG] [EG]>[DF] [CE]>[EG] | %2
 [Ec]>[Ec] [Ec]>[FA] [EG]2 [CE]>[FA] | [EG]>[EG] [EG]>[EG] [FA]>[EG] [EG]>[G,CE] | %4
 z4 z z/ G,/ E>F | [EG]>[EG] [EG]>[EG] [EG]>[DF] [CE]>[EG] |[M:3/4] [Ec]>[Ec] [Ec]>[FA] [EG]2 | %7
[M:1/4] [Ac]>[^Gd] |[M:4/4] [Ge] [Ge]3 [^Fe]2 [=Fd]2 |[M:3/4] [Ec]6 |[M:1/4] [EG]>[EG] | %11
[M:4/4] [EG]4 [CE]2 [Ec]>[Ec] | [Ec]4 [EG]2 [Ec]2 | B>B B>c d>B A>B | [EG]6 [EG]>[EG] | %15
 [Ge]4 [Ec]2 [_Bc]>[Bc] |[M:3/4] [Ac]4 [FA]2 |[M:1/4] [Ac]>[^Gd] | %18
[M:4/4] [Ge] [Ge]3 [^Fe]2 [=Fd]2 |[M:7/4] [Ec]6 z2 z2 z4 |] %20
V:2
 z4 z2 [C,G,]>[C,G,] | [C,C]>[C,C] [C,C]>[C,C] [C,C]>[C,C] [C,G,]>[C,C] | %2
 [C,G,]>[C,G,] [C,G,]>[C,C] [C,C]2 [C,G,]>[C,G,] | [C,C]>[C,C] [C,C]>[C,C] [C,C]>[C,C] [C,C]>C, | %4
 G,2 G,>A, G,>F, [E,G,C]>[D,G,D] | [C,C]>[C,C] [C,C]>[C,C] [C,C]>[C,C] [C,G,]>[C,C] | %6
[M:3/4] [C,G,]>[C,G,] [C,G,]>[C,C] [C,C]2 |[M:1/4] [F,C]>[F,C] | %8
[M:4/4] [G,C] [G,C]3 [D,C]2 [G,B,]2 |[M:3/4] [C,C]6 |[M:1/4] [C,C]>[C,C] | %11
[M:4/4] [C,C]4 [C,G,]2 [C,C]>[C,C] | [C,G,]4 [C,C]2 [C,C]2 | %13
 [G,DF]>[G,DF] [G,DF]>[G,CF] [G,B,F]>[G,DF] [G,DF]>[G,DF] | [C,C]6 [C,C]>[C,C] | %15
 [C,C]4 [C,C]2 [E,C]>[E,C] |[M:3/4] [F,C]4 [F,C]2 |[M:1/4] [F,C]>[F,C] | %18
[M:4/4] [G,C] [G,C]3 [D,C]2 [G,B,]2 |[M:7/4] [C,C]6 z2 z2 z4 |] %20
V:3
 x8 | x8 | x8 | x8 | [B,D]6 z2 | x8 |[M:3/4] x6 |[M:1/4] x2 |[M:4/4] x8 |[M:3/4] x6 |[M:1/4] x2 | %11
[M:4/4] x8 | x8 | x8 | x8 | x8 |[M:3/4] x6 |[M:1/4] x2 |[M:4/4] x8 |[M:7/4] x14 |] %20

